apps/16/plasmagik.svg

<?xml version="1.0" encoding="UTF-8"?>
<svg id="a" width="16" height="16" version="1.1" xmlns="http://www.w3.org/2000/svg" xmlns:cc="http://creativecommons.org/ns#" xmlns:dc="http://purl.org/dc/elements/1.1/" xmlns:rdf="http://www.w3.org/1999/02/22-rdf-syntax-ns#">
	<metadata id="d">
		<rdf:RDF>
			<cc:Work rdf:about="">
				<dc:format>image/svg+xml</dc:format>
				<dc:type rdf:resource="http://purl.org/dc/dcmitype/StillImage"/>
				<dc:title/>
			</cc:Work>
		</rdf:RDF>
	</metadata>
	<defs>
		<style id="current-color-scheme" type="text/css">.ColorScheme-Text {color:#090d11;}.ColorScheme-Background{color:#ffffff;}</style>
	</defs>
	<g id="b" transform="translate(9368.7 -1544.6)">
		<path id="c" transform="translate(-9368.7 1544.6)" d="m5 0v1h1v-1h-1zm1 1v1h1v-1h-1zm0 1h-1v1h1v-1zm-1 0v-1h-1v1h1zm4.6875-0.59375l-0.21875 2.125c0 0.1442-0.075 0.2849-0.1875 0.375l-1.6875 1.3438 2 0.84375c0.1098 0.049 0.2004 0.1402 0.25 0.25l0.75 2.0312 1.4375-1.625c0.089-0.094 0.21485-0.15115 0.34375-0.15625l2.1562-0.09375-1.0938-1.8438c-0.033-0.058-0.0545-0.1217-0.0625-0.1875-0.012-0.062-0.012-0.1257 0-0.1875l0.59375-2.0938-2.125 0.5c-0.1404 0.029-0.29275-0.00975-0.40625-0.09375l-1.75-1.1875zm-7.6875 2.5938v1h1v-1h-1zm1 1v1h1v-1h-1zm0 1h-1v1h1v-1zm-1 0v-1h-1v1h1zm5.9688 0.59375l-5.9062 5.9062-0.5625 0.5625 1.4062 1.4375 0.59375-0.59375 5.875-5.9062-1.4062-1.4062zm5.0312 4.4062v1h1v-1h-1zm1 1v1h1v-1h-1zm0 1h-1v1h1v-1zm-1 0v-1h-1v1h1z" style="fill-opacity:.75;fill:currentColor" class="ColorScheme-Text"/>
		<path id="e" transform="translate(-9368.7 1544.6)" d="m4 0v1h1v-1h-1zm1 1v1h1v-1h-1zm1 0h1v-1h-1v1zm0 1v1h1v-1h-1zm-1 0h-1v1h1v-1zm4.1562-1.9688c-0.20773 0.05351-0.36825 0.25417-0.375 0.46875l-0.28125 2.75-2.1562 1.7188c-0.26493 0.20941-0.21068 0.69771 0.09375 0.84375l0.65625 0.28125-7 7 2.8125 2.8125 6.875-6.875 0.1875 0.5c0.078326 0.19518 0.2904 0.32773 0.5 0.3125 0.12895-0.00504 0.25511-0.062381 0.34375-0.15625l1.8438-2.125 2.75-0.125c0.35025 0.00309 0.61235-0.44623 0.4375-0.75l-1.4688-2.3438 0.78125-2.7188c0.06908-0.22287-0.04238-0.48759-0.25-0.59375-0.11472-0.05818-0.25225-0.069642-0.375-0.03125l-2.6875 0.65625-2.3438-1.5625c-0.084979-0.047669-0.1841-0.069696-0.28125-0.0625-0.020806-0.0013046-0.041694-0.0013046-0.0625 0zm0.53125 1.375l1.75 1.1875c0.02007 0.011858 0.04097 0.022309 0.0625 0.03125 0.0099 0.010871 0.02038 0.021301 0.03125 0.03125 0.02007 0.011858 0.04097 0.022309 0.0625 0.03125 0.01041 3.26e-4 0.02084 3.26e-4 0.03125 0 0.02081 0.0013 0.04169 0.0013 0.0625 0 0.01041 3.26e-4 0.02084 3.26e-4 0.03125 0 0.02081 0.0013 0.04169 0.0013 0.0625 0 0.01041 3.26e-4 0.02084 3.26e-4 0.03125 0 0.01041 3.26e-4 0.02084 3.26e-4 0.03125 0l2.125-0.5-0.59375 2.0938c-3.25e-4 0.010413-3.25e-4 0.020837 0 0.03125-3.25e-4 0.010413-3.25e-4 0.020837 0 0.03125-0.0013 0.020806-0.0013 0.041694 0 0.0625-3.25e-4 0.010413-3.25e-4 0.020837 0 0.03125-3.25e-4 0.010413-3.25e-4 0.020837 0 0.03125 0.0081 0.065821 0.02952 0.12997 0.0625 0.1875l1.0938 1.8438-2.1562 0.09375c-0.01041-3.26e-4 -0.02084-3.26e-4 -0.03125 0-0.02081-0.0013-0.04169-0.0013-0.0625 0-0.02153 0.00894-0.04243 0.019392-0.0625 0.03125-0.02153 0.00894-0.04243 0.019392-0.0625 0.03125-0.01041-3.26e-4 -0.02084-3.26e-4 -0.03125 0-0.03522 0.026907-0.06684 0.058526-0.09375 0.09375l-1.4375 1.625-0.03125-0.125-0.15625-0.40625-0.5625-1.5c-0.0099498-0.010871-0.02038-0.021301-0.03125-0.03125 3.251e-4 -0.010413 3.251e-4 -0.020837 0-0.03125-0.039626-0.062833-0.093438-0.11665-0.15625-0.15625-0.010413-3.26e-4 -0.020837-3.26e-4 -0.03125 0-0.0099498-0.010871-0.02038-0.021301-0.03125-0.03125l-1.625-0.6875-0.125-0.0625-0.25-0.09375 1.6875-1.3438c0.037523-0.036418 0.069287-0.078769 0.09375-0.125 0.022621-0.018934 0.043563-0.039876 0.0625-0.0625 0.0013-0.020806 0.0013-0.041694 0-0.0625 0.01087-0.00995 0.0213-0.020379 0.03125-0.03125 0.0013-0.020806 0.0013-0.041694 0-0.0625 3.251e-4 -0.010413 3.251e-4 -0.020837 0-0.03125l0.21875-2.125zm-8.6875 2.5938v1h1v-1h-1zm1 1v1h1v-1h-1zm1 0h1v-1h-1v1zm0 1v1h1v-1h-1zm-1 0h-1v1h1v-1zm5.9688 0.59375l1.4062 1.4062-5.875 5.9062-0.59375 0.59375-1.4062-1.4375 0.5625-0.5625 5.9062-5.9062zm4.0312 4.4062v1h1v-1h-1zm1 1v1h1v-1h-1zm1 0h1v-1h-1v1zm0 1v1h1v-1h-1zm-1 0h-1v1h1v-1z" style="fill-opacity:.5;fill:currentColor" class="ColorScheme-Background"/>
	</g>
</svg>

<?xml version="1.0" encoding="UTF-8" standalone="no"?>
<!-- Created with Inkscape (http://www.inkscape.org/) -->

<svg
   xmlns:dc="http://purl.org/dc/elements/1.1/"
   xmlns:cc="http://creativecommons.org/ns#"
   xmlns:rdf="http://www.w3.org/1999/02/22-rdf-syntax-ns#"
   xmlns:svg="http://www.w3.org/2000/svg"
   xmlns="http://www.w3.org/2000/svg"
   xmlns:sodipodi="http://sodipodi.sourceforge.net/DTD/sodipodi-0.dtd"
   xmlns:inkscape="http://www.inkscape.org/namespaces/inkscape"
   sodipodi:docname="plasmagik.svg"
   inkscape:version="0.48.4 r9939"
   version="1.1"
   id="svg13094"
   height="16.000118"
   width="16.000088">
  <sodipodi:namedview
     id="base"
     pagecolor="#ffffff"
     bordercolor="#666666"
     borderopacity="1.0"
     inkscape:pageopacity="0.0"
     inkscape:pageshadow="2"
     inkscape:zoom="64.000002"
     inkscape:cx="6.9172518"
     inkscape:cy="10.423343"
     inkscape:document-units="px"
     inkscape:current-layer="layer1"
     showgrid="true"
     inkscape:snap-bbox="true"
     inkscape:bbox-paths="true"
     inkscape:bbox-nodes="true"
     inkscape:snap-bbox-edge-midpoints="true"
     inkscape:snap-bbox-midpoints="true"
     inkscape:object-paths="true"
     inkscape:snap-intersection-paths="true"
     inkscape:object-nodes="true"
     inkscape:snap-smooth-nodes="true"
     inkscape:snap-midpoints="true"
     inkscape:snap-object-midpoints="true"
     inkscape:snap-center="true"
     showguides="false"
     inkscape:guide-bbox="true"
     inkscape:window-width="1920"
     inkscape:window-height="1018"
     inkscape:window-x="-5"
     inkscape:window-y="25"
     inkscape:window-maximized="1"
     inkscape:snap-global="true"
     fit-margin-top="0"
     fit-margin-left="0"
     fit-margin-right="0"
     fit-margin-bottom="0"
     showborder="true"
     inkscape:showpageshadow="false">
    <sodipodi:guide
       orientation="0,1"
       position="7904.3893,1688.6364"
       id="guide16149" />
    <sodipodi:guide
       orientation="0,1"
       position="7677.2464,1639.6277"
       id="guide16151" />
    <sodipodi:guide
       orientation="0,1"
       position="7742.9606,1664.132"
       id="guide16153" />
    <sodipodi:guide
       orientation="0,1"
       position="7736.5321,1583.9848"
       id="guide17725" />
    <sodipodi:guide
       orientation="1,0"
       position="8234.0303,1192.115"
       id="guide9456" />
    <sodipodi:guide
       orientation="0,1"
       position="8058.2804,1557.1639"
       id="guide9458" />
    <sodipodi:guide
       orientation="0,1"
       position="7829.5106,1502.2585"
       id="guide9468" />
    <sodipodi:guide
       orientation="0,1"
       position="7854.0304,1523.6285"
       id="guide9470" />
    <sodipodi:guide
       orientation="1,0"
       position="7722.0304,1237.629"
       id="guide11159" />
    <sodipodi:guide
       orientation="1,0"
       position="8035.0616,1501.6635"
       id="guide13980" />
    <sodipodi:guide
       id="guide3972"
       position="6181.0305,126.62899"
       orientation="0,1" />
    <sodipodi:guide
       id="guide3974"
       position="6361.0305,-1.3710498"
       orientation="1,0" />
    <sodipodi:guide
       id="guide3976"
       position="6055.0305,-236.37095"
       orientation="0,1" />
    <sodipodi:guide
       id="guide3978"
       position="6028.0305,-95.37105"
       orientation="1,0" />
    <sodipodi:guide
       id="guide4287"
       position="1377.8013,1369.629"
       orientation="1,0" />
    <sodipodi:guide
       id="guide4289"
       position="1377.8013,1369.629"
       orientation="0,1" />
    <inkscape:grid
       type="xygrid"
       id="grid3918"
       empspacing="5"
       visible="true"
       enabled="true"
       snapvisiblegridlinesonly="true"
       originx="0.00017297285px"
       originy="71.999982px" />
  </sodipodi:namedview>
  <defs
     id="defs13096" />
  <metadata
     id="metadata13099">
    <rdf:RDF>
      <cc:Work
         rdf:about="">
        <dc:format>image/svg+xml</dc:format>
        <dc:type
           rdf:resource="http://purl.org/dc/dcmitype/StillImage" />
        <dc:title />
      </cc:Work>
    </rdf:RDF>
  </metadata>
  <g
     inkscape:label="Camada 1"
     inkscape:groupmode="layer"
     id="layer1"
     transform="translate(9368.675,-1544.5612)">
    <path
       style="color:#000000;fill:#f1f3f5;fill-opacity:0.90288714000000003;fill-rule:nonzero;stroke:none;stroke-width:2;marker:none;visibility:visible;display:inline;overflow:visible;enable-background:accumulate"
       d="M 4 0 L 4 1 L 5 1 L 5 0 L 4 0 z M 5 1 L 5 2 L 6 2 L 6 1 L 5 1 z M 6 1 L 7 1 L 7 0 L 6 0 L 6 1 z M 6 2 L 6 3 L 7 3 L 7 2 L 6 2 z M 5 2 L 4 2 L 4 3 L 5 3 L 5 2 z M 9.15625 0.03125 C 8.9485223 0.08475983 8.787998 0.28541511 8.78125 0.5 L 8.5 3.25 L 6.34375 4.96875 C 6.0788172 5.1781623 6.133073 5.6664648 6.4375 5.8125 L 7.09375 6.09375 L 0.09375 13.09375 L 2.90625 15.90625 L 9.78125 9.03125 L 9.96875 9.53125 C 10.047076 9.7264317 10.259154 9.8589804 10.46875 9.84375 C 10.597699 9.83871 10.723856 9.781369 10.8125 9.6875 L 12.65625 7.5625 L 15.40625 7.4375 C 15.756498 7.44059 16.018604 6.9912698 15.84375 6.6875 L 14.375 4.34375 L 15.15625 1.625 C 15.22533 1.4021263 15.11387 1.1374059 14.90625 1.03125 C 14.791535 0.97306954 14.653998 0.96160808 14.53125 1 L 11.84375 1.65625 L 9.5 0.09375 C 9.4150212 0.04608127 9.3158989 0.02405408 9.21875 0.03125 C 9.197944 0.0299454 9.177056 0.0299454 9.15625 0.03125 z M 9.6875 1.40625 L 11.4375 2.59375 C 11.45757 2.605608 11.47847 2.616059 11.5 2.625 C 11.5099 2.635871 11.52038 2.646301 11.53125 2.65625 C 11.55132 2.668108 11.57222 2.678559 11.59375 2.6875 C 11.60416 2.687826 11.61459 2.687826 11.625 2.6875 C 11.64581 2.6888 11.66669 2.6888 11.6875 2.6875 C 11.69791 2.687826 11.70834 2.687826 11.71875 2.6875 C 11.73956 2.6888 11.76044 2.6888 11.78125 2.6875 C 11.79166 2.687826 11.80209 2.687826 11.8125 2.6875 C 11.82291 2.687826 11.83334 2.687826 11.84375 2.6875 L 13.96875 2.1875 L 13.375 4.28125 C 13.374675 4.291663 13.374675 4.302087 13.375 4.3125 C 13.374675 4.322913 13.374675 4.333337 13.375 4.34375 C 13.3737 4.364556 13.3737 4.385444 13.375 4.40625 C 13.374675 4.416663 13.374675 4.427087 13.375 4.4375 C 13.374675 4.447913 13.374675 4.458337 13.375 4.46875 C 13.3831 4.534571 13.40452 4.5987227 13.4375 4.65625 L 14.53125 6.5 L 12.375 6.59375 C 12.36459 6.593424 12.35416 6.593424 12.34375 6.59375 C 12.32294 6.59245 12.30206 6.59245 12.28125 6.59375 C 12.25972 6.60269 12.23882 6.613142 12.21875 6.625 C 12.19722 6.63394 12.17632 6.644392 12.15625 6.65625 C 12.14584 6.655924 12.13541 6.655924 12.125 6.65625 C 12.08978 6.683157 12.05816 6.714776 12.03125 6.75 L 10.59375 8.375 L 10.5625 8.25 L 10.40625 7.84375 L 9.84375 6.34375 C 9.8338002 6.3328792 9.8233699 6.322449 9.8125 6.3125 C 9.8128251 6.302087 9.8128251 6.291663 9.8125 6.28125 C 9.7728742 6.2184172 9.7190618 6.1646048 9.65625 6.125 C 9.6458367 6.124674 9.6354133 6.124674 9.625 6.125 C 9.6150502 6.1141292 9.6046199 6.103699 9.59375 6.09375 L 7.96875 5.40625 L 7.84375 5.34375 L 7.59375 5.25 L 9.28125 3.90625 C 9.318773 3.869832 9.350537 3.827481 9.375 3.78125 C 9.397621 3.762316 9.418563 3.741374 9.4375 3.71875 C 9.4388 3.697944 9.4388 3.677056 9.4375 3.65625 C 9.44837 3.6463 9.4588 3.635871 9.46875 3.625 C 9.47005 3.604194 9.47005 3.583306 9.46875 3.5625 C 9.4690751 3.552087 9.4690751 3.541663 9.46875 3.53125 L 9.6875 1.40625 z M 1 4 L 1 5 L 2 5 L 2 4 L 1 4 z M 2 5 L 2 6 L 3 6 L 3 5 L 2 5 z M 3 5 L 4 5 L 4 4 L 3 4 L 3 5 z M 3 6 L 3 7 L 4 7 L 4 6 L 3 6 z M 2 6 L 1 6 L 1 7 L 2 7 L 2 6 z M 7.96875 6.59375 L 9.375 8 L 3.5 13.90625 L 2.90625 14.5 L 1.5 13.0625 L 2.0625 12.5 L 7.96875 6.59375 z M 12 11 L 12 12 L 13 12 L 13 11 L 12 11 z M 13 12 L 13 13 L 14 13 L 14 12 L 13 12 z M 14 12 L 15 12 L 15 11 L 14 11 L 14 12 z M 14 13 L 14 14 L 15 14 L 15 13 L 14 13 z M 13 13 L 12 13 L 12 14 L 13 14 L 13 13 z "
       transform="translate(-9368.675,1544.5612)"
       id="rect3844" />
    <path
       style="color:#000000;fill:#27303a;fill-opacity:0.753280819999999968;fill-rule:nonzero;stroke:none;stroke-width:2;marker:none;visibility:visible;display:inline;overflow:visible;enable-background:accumulate"
       d="M 5 0 L 5 1 L 6 1 L 6 0 L 5 0 z M 6 1 L 6 2 L 7 2 L 7 1 L 6 1 z M 6 2 L 5 2 L 5 3 L 6 3 L 6 2 z M 5 2 L 5 1 L 4 1 L 4 2 L 5 2 z M 9.6875 1.40625 L 9.46875 3.53125 C 9.46875 3.67545 9.39375 3.81615 9.28125 3.90625 L 7.59375 5.25 L 9.59375 6.09375 C 9.70355 6.14275 9.79415 6.23395 9.84375 6.34375 L 10.59375 8.375 L 12.03125 6.75 C 12.12025 6.656 12.2461 6.59885 12.375 6.59375 L 14.53125 6.5 L 13.4375 4.65625 C 13.4045 4.59825 13.383 4.53455 13.375 4.46875 C 13.363 4.40675 13.363 4.34305 13.375 4.28125 L 13.96875 2.1875 L 11.84375 2.6875 C 11.70335 2.7165 11.551 2.67775 11.4375 2.59375 L 9.6875 1.40625 z M 2 4 L 2 5 L 3 5 L 3 4 L 2 4 z M 3 5 L 3 6 L 4 6 L 4 5 L 3 5 z M 3 6 L 2 6 L 2 7 L 3 7 L 3 6 z M 2 6 L 2 5 L 1 5 L 1 6 L 2 6 z M 7.96875 6.59375 L 2.0625 12.5 L 1.5 13.0625 L 2.90625 14.5 L 3.5 13.90625 L 9.375 8 L 7.96875 6.59375 z M 13 11 L 13 12 L 14 12 L 14 11 L 13 11 z M 14 12 L 14 13 L 15 13 L 15 12 L 14 12 z M 14 13 L 13 13 L 13 14 L 14 14 L 14 13 z M 13 13 L 13 12 L 12 12 L 12 13 L 13 13 z "
       transform="translate(-9368.675,1544.5612)"
       id="path3781" />
  </g>
</svg>
